packages/core/src/svgs/tokens/mono/MX.svg

<svg width="24" height="24" viewBox="0 0 24 24" fill="none" xmlns="http://www.w3.org/2000/svg">
<path d="M6.66733 6.8948C6.87017 6.52717 7.1679 6.22066 7.52948 6.0072C7.89105 5.79375 8.30325 5.68115 8.72313 5.68115C9.14302 5.68115 9.55524 5.79375 9.91676 6.0072C10.2784 6.22066 10.576 6.52717 10.779 6.8948L17.2385 18.3189H4.4457C2.56626 18.3189 1.39226 16.2393 2.32935 14.5757L6.66733 6.8948Z" fill="white"/>
<path d="M17.3328 6.8948C17.13 6.52717 16.8322 6.22066 16.4706 6.0072C16.1091 5.79375 15.6968 5.68115 15.277 5.68115C14.8571 5.68115 14.4449 5.79375 14.0833 6.0072C13.7217 6.22066 13.4241 6.52717 13.2211 6.8948L8.64104 15.0022C7.80398 16.4763 8.84635 18.3189 10.51 18.3189H19.5545C21.4339 18.3189 22.6079 16.2393 21.6708 14.5757L17.3328 6.8948Z" fill="white"/>
<path d="M10.5098 18.3186H17.2378L11.9997 9.05298L8.63563 15.0019C7.80383 16.476 8.8462 18.3186 10.5098 18.3186Z" fill="white"/>
</svg>

<svg xmlns="http://www.w3.org/2000/svg" width="24" height="24" fill="none" viewBox="0 0 24 24">
    <path fill="#fff" d="M6.667 6.895a2.348 2.348 0 0 1 4.112 0l6.46 11.424H4.445c-1.88 0-3.054-2.08-2.117-3.743z"/>
    <path fill="#fff" d="M17.333 6.895a2.348 2.348 0 0 0-4.112 0l-4.58 8.107c-.837 1.474.205 3.317 1.869 3.317h9.045c1.879 0 3.053-2.08 2.116-3.743z"/>
    <path fill="#fff" d="M10.51 18.319h6.728L12 9.053l-3.364 5.949c-.832 1.474.21 3.317 1.874 3.317"/>
</svg>
